img/star.svg

<svg width="25" height="23" viewBox="0 0 25 23" fill="none" xmlns="http://www.w3.org/2000/svg">
<path d="M12.5 0L15.3064 8.63729H24.3882L17.0409 13.9754L19.8473 22.6127L12.5 17.2746L5.15268 22.6127L7.95911 13.9754L0.611794 8.63729H9.69357L12.5 0Z" fill="white"/>
</svg>

<svg width="25" height="23" fill="none" xmlns="http://www.w3.org/2000/svg"><path d="M12.5 0l2.806 8.637h9.082l-7.347 5.338 2.806 8.638-7.347-5.338-7.347 5.338 2.806-8.638L.612 8.637h9.082L12.5 0z" fill="#fff"/></svg>
